;FLAVOR:Marlin
;TIME:6218
;Filament used: 6.10586m
;Layer height: 0.2
;MINX:74.1
;MINY:33.389
;MINZ:0.2
;MAXX:135.9
;MAXY:176.585
;MAXZ:7.8
;Generated with Cura_SteamEngine 4.11.0
M140 S60
M105
M190 S60
M104 S200
M105
M109 S200
M82 ;absolute extrusion mode
G21 ;metric values
G90 ;absolute positioning
M82 ;set extruder to absolute mode
M107 ;start with the fan off
G28 X0 Y0 ;move X/Y to min endstops
G28 Z0 ;move Z to min endstops
G1 Z15.0 F100 ;move the platform down 15mm
G92 E0 ;zero the extruded length
G1 F200 E3 ;extrude 3mm of feed stock
G92 E0 ;zero the extruded length again
G1 F100
G0 Y20 F100
M117 Printing...
G5
G92 E0
G92 E0
G1 F2400 E-6
;LAYER_COUNT:39
;LAYER:0
M107
M204 S3000
M205 X10 Y10
G1 F600 Z0.275
G0 F3000 X77.469 Y45.198 Z0.275
M204 S1800
M205 X8 Y8
;TYPE:SKIRT
G1 F600 Z0.2
G1 F2400 E0
G1 X77.83 Y44.589 E0.03297
G1 X78.04 Y44.247 E0.05165
G1 X78.413 Y43.656 E0.08419
G1 X78.611 Y43.36 E0.10078
G1 X78.994 Y42.822 E0.13153
G1 X79.126 Y42.644 E0.14185
G1 X80.448 Y40.919 E0.24305
G1 X82.949 Y37.795 E0.42939
G1 X83.401 Y37.245 E0.46254
G1 X83.886 Y36.718 E0.49589
G1 X84.426 Y36.249 E0.52919
G1 X85.015 Y35.843 E0.5625
G1 X85.645 Y35.506 E0.59577
G1 X86.31 Y35.241 E0.6291
G1 X86.712 Y35.12 E0.64865
G1 X87.503 Y34.912 E0.68674
G1 X92.259 Y33.724 E0.915
G1 X92.966 Y33.558 E0.94881
G1 X93.67 Y33.434 E0.9821
G1 X94.384 Y33.389 E1.01541
G1 X94.944 Y33.41 E1.04151
G1 X95.329 Y33.441 E1.05949
G1 X97.499 Y33.646 E1.16099
G1 X100.096 Y33.818 E1.28218
G1 X102.773 Y33.918 E1.40692
G1 X105.417 Y33.943 E1.53004
G1 X108.062 Y33.893 E1.65322
G1 X110.7 Y33.768 E1.7762
G1 X113.336 Y33.569 E1.89929
G1 X114.326 Y33.469 E1.94562
G1 X114.994 Y33.411 E1.97685
G1 X115.709 Y33.389 E2.01015
G1 X116.422 Y33.447 E2.04346
G1 X117.001 Y33.554 E2.07088
G1 X117.993 Y33.786 E2.11832
G1 X122.585 Y34.935 E2.33873
G1 X123.281 Y35.118 E2.37225
G1 X123.962 Y35.339 E2.40558
G1 X124.614 Y35.633 E2.43889
G1 X125.228 Y35.999 E2.47217
G1 X125.798 Y36.431 E2.50547
G1 X126.317 Y36.924 E2.53881
G1 X126.595 Y37.24 E2.5584
G1 X127.081 Y37.832 E2.59407
G1 X129.671 Y41.072 E2.78722
G1 X130.873 Y42.642 E2.87929
G1 X131.006 Y42.823 E2.88975
G1 X131.403 Y43.381 E2.92163
G1 X131.607 Y43.686 E2.93872
G1 X131.971 Y44.266 E2.97061
G1 X132.184 Y44.615 E2.98964
G1 X132.573 Y45.275 E3.02532
G1 X132.742 Y45.583 E3.04168
G1 X133.039 Y46.157 E3.07177
G1 X133.257 Y46.591 E3.09439
G1 X133.54 Y47.18 E3.12481
G1 X133.679 Y47.492 E3.14072
G1 X133.987 Y48.234 E3.17813
G1 X134.119 Y48.566 E3.19476
G1 X134.36 Y49.194 E3.22608
G1 X134.481 Y49.54 E3.24315
G1 X134.713 Y50.267 E3.27869
G1 X134.828 Y50.645 E3.29708
G1 X135.023 Y51.326 E3.33007
G1 X135.109 Y51.66 E3.34613
G1 X135.277 Y52.397 E3.38133
G1 X135.349 Y52.74 E3.39765
G1 X135.486 Y53.42 E3.42995
G1 X135.55 Y53.794 E3.44761
G1 X135.657 Y54.562 E3.48372
G1 X135.701 Y54.907 E3.49992
G1 X135.78 Y55.61 E3.53286
G1 X135.81 Y55.962 E3.54931
G1 X135.856 Y56.799 E3.58834
G1 X135.867 Y57.079 E3.60139
G1 X135.898 Y58.222 E3.65463
G1 X135.9 Y58.398 E3.66283
G1 X135.898 Y62.016 E3.8313
G1 X135.88 Y63.157 E3.88443
G1 X135.846 Y63.944 E3.92111
G1 X135.806 Y64.628 E3.95302
G1 X135.773 Y64.999 E3.97036
G1 X135.667 Y65.904 E4.01279
G1 X135.623 Y66.232 E4.0282
G1 X135.525 Y66.899 E4.05959
G1 X135.462 Y67.258 E4.07656
G1 X135.282 Y68.13 E4.11802
G1 X135.205 Y68.47 E4.13425
G1 X135.05 Y69.12 E4.16537
G1 X134.954 Y69.476 E4.18254
G1 X134.677 Y70.398 E4.22737
G1 X134.623 Y70.571 E4.23581
G1 X134.37 Y71.334 E4.27324
G1 X134.312 Y71.5 E4.28142
G1 X133.932 Y72.547 E4.33329
G1 X133.752 Y73.021 E4.3569
G1 X132.874 Y75.548 E4.48147
G1 X132.085 Y78.043 E4.60331
G1 X131.357 Y80.595 E4.72689
G1 X130.696 Y83.191 E4.85162
G1 X130.114 Y85.783 E4.97532
G1 X129.613 Y88.345 E5.09688
G1 X129.181 Y90.944 E5.21956
G1 X128.819 Y93.584 E5.34364
G1 X128.534 Y96.213 E5.46678
G1 X128.322 Y98.858 E5.59033
G1 X128.185 Y101.524 E5.71464
G1 X128.124 Y104.137 E5.83634
G1 X128.138 Y106.81 E5.96081
G1 X128.225 Y109.422 E6.0825
G1 X128.39 Y112.092 E6.20707
G1 X128.628 Y114.735 E6.33063
G1 X128.937 Y117.341 E6.45283
G1 X129.326 Y119.972 E6.57667
G1 X129.784 Y122.568 E6.69942
G1 X130.311 Y125.132 E6.82131
G1 X130.931 Y127.763 E6.94717
G1 X131.601 Y130.283 E7.06859
G1 X132.359 Y132.845 E7.193
G1 X133.179 Y135.348 E7.31565
G1 X133.849 Y137.219 E7.40818
G1 X134.314 Y138.508 E7.47199
G1 X134.368 Y138.663 E7.47963
G1 X134.644 Y139.496 E7.5205
G1 X134.762 Y139.871 E7.5388
G1 X134.942 Y140.472 E7.56802
G1 X135.039 Y140.835 E7.58551
G1 X135.245 Y141.708 E7.62728
G1 X135.317 Y142.039 E7.64305
G1 X135.459 Y142.728 E7.67581
G1 X135.522 Y143.086 E7.69273
G1 X135.65 Y143.953 E7.73354
G1 X135.686 Y144.238 E7.74692
G1 X135.769 Y144.945 E7.78007
G1 X135.802 Y145.321 E7.79764
G1 X135.852 Y146.182 E7.8378
G1 X135.866 Y146.52 E7.85355
G1 X135.897 Y147.543 E7.90121
G1 X135.9 Y147.738 E7.91029
G1 X135.898 Y154.498 E8.22507
G1 X135.889 Y155.17 E8.25636
G1 X135.884 Y155.366 E8.26549
G1 X135.855 Y156.024 E8.29616
G1 X135.844 Y156.207 E8.30469
G1 X135.801 Y156.797 E8.33224
G1 X135.74 Y157.327 E8.35708
G1 X135.617 Y158.097 E8.39339
G1 X135.509 Y158.679 E8.42095
G1 X135.389 Y159.199 E8.4458
G1 X135.237 Y159.755 E8.47264
G1 X135.183 Y159.942 E8.48171
G1 X134.997 Y160.549 E8.51127
G1 X134.815 Y161.063 E8.53666
G1 X134.582 Y161.642 E8.56572
G1 X134.504 Y161.827 E8.57507
G1 X134.247 Y162.412 E8.60482
G1 X134.017 Y162.883 E8.62923
G1 X133.753 Y163.371 E8.65506
G1 X133.369 Y164.045 E8.69118
G1 X133.062 Y164.531 E8.71795
G1 X132.704 Y165.044 E8.74708
G1 X132.606 Y165.181 E8.75492
G1 X132.257 Y165.654 E8.7823
G1 X132.141 Y165.806 E8.7912
G1 X131.663 Y166.414 E8.82721
G1 X126.979 Y172.225 E9.17476
G1 X126.516 Y172.782 E9.20848
G1 X126.028 Y173.306 E9.24182
G1 X125.486 Y173.772 E9.27511
G1 X124.895 Y174.174 E9.30839
G1 X124.262 Y174.508 E9.34172
G1 X123.418 Y174.826 E9.38371
G1 X122.654 Y175.035 E9.4206
G1 X117.817 Y176.253 E9.65286
G1 X117.148 Y176.412 E9.68488
G1 X116.444 Y176.538 E9.71818
G1 X115.73 Y176.585 E9.7515
G1 X114.986 Y176.549 E9.78618
G1 X113.628 Y176.404 E9.84978
G1 X110.96 Y176.156 E9.97454
G1 X108.311 Y175.986 E10.09815
G1 X105.674 Y175.891 E10.22102
G1 X103.031 Y175.871 E10.34409
G1 X100.35 Y175.927 E10.46895
G1 X97.756 Y176.053 E10.58988
G1 X94.325 Y176.332 E10.75017
G1 X93.167 Y176.447 E10.80436
G1 X92.452 Y176.477 E10.83768
G1 X91.739 Y176.428 E10.87096
G1 X91.035 Y176.3 E10.90428
G1 X90.632 Y176.189 E10.92374
G1 X89.675 Y175.891 E10.97042
G1 X86.888 Y174.962 E11.10721
G1 X86.247 Y174.738 E11.13883
G1 X85.586 Y174.464 E11.17215
G1 X84.959 Y174.119 E11.20547
G1 X84.375 Y173.706 E11.23878
G1 X83.841 Y173.23 E11.27209
G1 X83.434 Y172.785 E11.30017
G1 X82.851 Y172.083 E11.34266
G1 X80.412 Y169.033 E11.5245
G1 X79.127 Y167.357 E11.62284
G1 X78.992 Y167.174 E11.63343
G1 X78.596 Y166.617 E11.66526
G1 X78.393 Y166.314 E11.68224
G1 X78.029 Y165.734 E11.71412
G1 X77.816 Y165.384 E11.7332
G1 X77.426 Y164.722 E11.76898
G1 X77.257 Y164.416 E11.78526
G1 X76.954 Y163.829 E11.81602
G1 X76.747 Y163.414 E11.83761
G1 X76.459 Y162.817 E11.86848
G1 X76.313 Y162.492 E11.88507
G1 X76.012 Y161.765 E11.9217
G1 X75.88 Y161.432 E11.93838
G1 X75.636 Y160.796 E11.9701
G1 X75.511 Y160.442 E11.98759
G1 X75.287 Y159.733 E12.02221
G1 X75.172 Y159.355 E12.04061
G1 X74.977 Y158.674 E12.07359
G1 X74.891 Y158.338 E12.08974
G1 X74.709 Y157.538 E12.12794
G1 X74.65 Y157.256 E12.14136
G1 X74.513 Y156.574 E12.17375
G1 X74.451 Y156.206 E12.19113
G1 X74.343 Y155.438 E12.22724
G1 X74.299 Y155.093 E12.24343
G1 X74.22 Y154.39 E12.27638
G1 X74.19 Y154.038 E12.29283
G1 X74.144 Y153.217 E12.33111
G1 X74.132 Y152.905 E12.34565
G1 X74.102 Y151.774 E12.39834
G1 X74.1 Y151.602 E12.40635
G1 X74.102 Y147.984 E12.57482
G1 X74.12 Y146.843 E12.62795
G1 X74.154 Y146.056 E12.66463
G1 X74.194 Y145.372 E12.69654
G1 X74.227 Y145.001 E12.71388
G1 X74.333 Y144.096 E12.75631
G1 X74.377 Y143.768 E12.77172
G1 X74.475 Y143.101 E12.80311
G1 X74.538 Y142.742 E12.82008
G1 X74.721 Y141.858 E12.86212
G1 X74.804 Y141.492 E12.87959
G1 X74.95 Y140.88 E12.90889
G1 X75.046 Y140.524 E12.92606
G1 X75.323 Y139.602 E12.97089
G1 X75.377 Y139.429 E12.97933
G1 X75.63 Y138.666 E13.01676
G1 X75.688 Y138.5 E13.02494
G1 X76.068 Y137.453 E13.07681
G1 X76.248 Y136.979 E13.10042
G1 X77.126 Y134.452 E13.22499
G1 X77.915 Y131.957 E13.34683
G1 X78.643 Y129.405 E13.47041
G1 X79.304 Y126.809 E13.59514
G1 X79.886 Y124.217 E13.71884
G1 X80.387 Y121.655 E13.8404
G1 X80.819 Y119.056 E13.96308
G1 X81.181 Y116.416 E14.08716
G1 X81.466 Y113.787 E14.21029
G1 X81.678 Y111.142 E14.33385
G1 X81.815 Y108.476 E14.45816
G1 X81.876 Y105.863 E14.57986
G1 X81.862 Y103.19 E14.70433
G1 X81.775 Y100.578 E14.82602
G1 X81.61 Y97.908 E14.95059
G1 X81.372 Y95.268 E15.07401
G1 X81.061 Y92.649 E15.19682
G1 X80.676 Y90.038 E15.31972
G1 X80.215 Y87.426 E15.44322
G1 X79.689 Y84.868 E15.56482
G1 X79.076 Y82.27 E15.68912
G1 X78.392 Y79.692 E15.81332
G1 X77.635 Y77.135 E15.93749
G1 X76.818 Y74.641 E16.05969
G1 X76.147 Y72.769 E16.15229
G1 X75.686 Y71.492 E16.21551
G1 X75.632 Y71.337 E16.22315
G1 X75.354 Y70.497 E16.26435
G1 X75.238 Y70.128 E16.28236
G1 X75.058 Y69.527 E16.31158
G1 X74.961 Y69.166 E16.32898
G1 X74.755 Y68.292 E16.3708
G1 X74.683 Y67.96 E16.38661
G1 X74.538 Y67.256 E16.42008
G1 X74.474 Y66.893 E16.43725
G1 X74.35 Y66.047 E16.47706
G1 X74.313 Y65.76 E16.49054
G1 X74.23 Y65.051 E16.52378
G1 X74.198 Y64.678 E16.54121
G1 X74.148 Y63.818 E16.58132
G1 X74.134 Y63.469 E16.59758
G1 X74.103 Y62.388 E16.64794
G1 X74.1 Y62.203 E16.65656
G1 X74.102 Y58.882 E16.8112
G1 X74.146 Y56.812 E16.90761
G1 X74.155 Y56.59 E16.91795
G1 X74.19 Y55.966 E16.94705
G1 X74.22 Y55.606 E16.96387
G1 X74.302 Y54.88 E16.9979
G1 X74.322 Y54.722 E17.00531
G1 X74.449 Y53.803 E17.04851
G1 X74.513 Y53.424 E17.06641
G1 X74.666 Y52.663 E17.10255
G1 X74.751 Y52.272 E17.12118
G1 X74.902 Y51.617 E17.15248
G1 X74.988 Y51.283 E17.16854
G1 X75.197 Y50.563 E17.20345
G1 X75.311 Y50.187 E17.22175
G1 X75.519 Y49.537 E17.25353
G1 X75.64 Y49.196 E17.27038
G1 X75.912 Y48.488 E17.30569
G1 X76.043 Y48.16 E17.32214
G1 X76.325 Y47.482 E17.35633
G1 X76.468 Y47.162 E17.37265
G1 X76.791 Y46.493 E17.40724
G1 X76.988 Y46.103 E17.42759
G1 X77.3 Y45.503 E17.45908
G1 X77.469 Y45.198 E17.47532
M204 S3000
M205 X10 Y10
G0 F3000 X77.951 Y45.483
M204 S1800
M205 X8 Y8
G1 F2400 X78.308 Y44.881 E17.50791
G1 X78.513 Y44.546 E17.52619
G1 X78.886 Y43.955 E17.55874
G1 X79.067 Y43.685 E17.57387
G1 X79.45 Y43.147 E17.60462
G1 X79.571 Y42.984 E17.61408
G1 X80.885 Y41.269 E17.71468
G1 X83.382 Y38.15 E17.90072
G1 X83.834 Y37.6 E17.93387
G1 X84.298 Y37.099 E17.96567
G1 X84.817 Y36.655 E17.99747
G1 X85.385 Y36.274 E18.02932
G1 X85.993 Y35.963 E18.06112
G1 X86.855 Y35.662 E18.10363
G1 X87.639 Y35.455 E18.14139
G1 X92.387 Y34.27 E18.36926
G1 X93.094 Y34.104 E18.40307
G1 X93.767 Y33.987 E18.43488
G1 X94.449 Y33.949 E18.46669
G1 X95.196 Y33.992 E18.50153
G1 X97.444 Y34.204 E18.60667
G1 X100.073 Y34.377 E18.72935
G1 X102.747 Y34.478 E18.85395
G1 X105.423 Y34.503 E18.97856
G1 X108.063 Y34.453 E19.10152
G1 X110.769 Y34.325 E19.22766
G1 X113.398 Y34.127 E19.35042
G1 X114.375 Y34.027 E19.39615
G1 X115.043 Y33.969 E19.42738
G1 X115.726 Y33.95 E19.45919
G1 X116.406 Y34.01 E19.49098
G1 X116.874 Y34.1 E19.51317
G1 X117.857 Y34.33 E19.56018
G1 X122.443 Y35.477 E19.7803
G1 X123.139 Y35.66 E19.81381
G1 X123.789 Y35.872 E19.84565
G1 X124.409 Y36.159 E19.87746
G1 X124.991 Y36.516 E19.90925
G1 X125.528 Y36.938 E19.94105
G1 X126.162 Y37.596 E19.9836
G1 X126.644 Y38.182 E20.01893
G1 X129.226 Y41.413 E20.21152
G1 X130.428 Y42.983 E20.30359
G1 X130.55 Y43.147 E20.31311
G1 X130.947 Y43.705 E20.345
G1 X131.133 Y43.984 E20.36061
G1 X131.493 Y44.558 E20.39216
G1 X131.701 Y44.9 E20.4108
G1 X132.09 Y45.56 E20.44647
G1 X132.245 Y45.84 E20.46137
G1 X132.539 Y46.409 E20.4912
G1 X132.752 Y46.834 E20.51333
G1 X133.035 Y47.423 E20.54376
G1 X133.163 Y47.708 E20.55831
G1 X133.467 Y48.441 E20.59526
G1 X133.596 Y48.767 E20.61158
G1 X133.837 Y49.395 E20.64291
G1 X133.948 Y49.71 E20.65846
G1 X134.178 Y50.431 E20.6937
G1 X134.289 Y50.799 E20.7116
G1 X134.484 Y51.48 E20.74458
G1 X134.563 Y51.785 E20.75925
G1 X134.729 Y52.514 E20.79406
G1 X134.8 Y52.851 E20.8101
G1 X134.937 Y53.531 E20.8424
G1 X134.995 Y53.872 E20.85851
G1 X135.102 Y54.634 E20.89434
G1 X135.144 Y54.97 E20.91011
G1 X135.223 Y55.673 E20.94305
G1 X135.251 Y55.993 E20.958
G1 X135.297 Y56.82 E20.99657
G1 X135.307 Y57.095 E21.00939
G1 X135.338 Y58.238 E21.06263
G1 X135.34 Y58.398 E21.07008
G1 X135.338 Y62.008 E21.23818
G1 X135.324 Y62.977 E21.2833
G1 X135.32 Y63.134 E21.29061
G1 X135.287 Y63.911 E21.32683
G1 X135.247 Y64.595 E21.35873
G1 X135.217 Y64.934 E21.37458
G1 X135.112 Y65.832 E21.41668
G1 X135.069 Y66.151 E21.43167
G1 X134.971 Y66.818 E21.46306
G1 X134.913 Y67.146 E21.47857
G1 X134.735 Y68.009 E21.5196
G1 X134.661 Y68.34 E21.53539
G1 X134.506 Y68.99 E21.56651
G1 X134.418 Y69.315 E21.58218
G1 X134.141 Y70.237 E21.62701
G1 X134.091 Y70.395 E21.63473
G1 X133.838 Y71.158 E21.67216
G1 X133.786 Y71.309 E21.6796
G1 X133.409 Y72.348 E21.73106
G1 X133.224 Y72.835 E21.75532
G1 X132.338 Y75.384 E21.88098
G1 X131.546 Y77.888 E22.00327
G1 X130.817 Y80.448 E22.12721
G1 X130.147 Y83.073 E22.25336
G1 X129.575 Y85.622 E22.37501
G1 X129.061 Y88.255 E22.49992
G1 X128.625 Y90.879 E22.62378
G1 X128.263 Y93.517 E22.74777
G1 X127.974 Y96.179 E22.87245
G1 X127.763 Y98.822 E22.99591
G1 X127.626 Y101.482 E23.11994
G1 X127.564 Y104.126 E23.24309
G1 X127.578 Y106.797 E23.36746
G1 X127.668 Y109.476 E23.49228
G1 X127.832 Y112.142 E23.61665
G1 X128.069 Y114.774 E23.73971
G1 X128.383 Y117.424 E23.86396
G1 X128.77 Y120.042 E23.98719
G1 X129.234 Y122.668 E24.11137
G1 X129.769 Y125.277 E24.23538
G1 X130.386 Y127.892 E24.36049
G1 X131.064 Y130.442 E24.48335
G1 X131.821 Y133.001 E24.60761
G1 X132.651 Y135.534 E24.73173
G1 X133.326 Y137.421 E24.82505
G1 X133.837 Y138.84 E24.89528
G1 X134.11 Y139.666 E24.93579
G1 X134.225 Y140.031 E24.95361
G1 X134.405 Y140.632 E24.98282
G1 X134.494 Y140.964 E24.99883
G1 X134.698 Y141.829 E25.04021
G1 X134.769 Y142.152 E25.05561
G1 X134.911 Y142.841 E25.08837
G1 X134.968 Y143.168 E25.10382
G1 X135.094 Y144.026 E25.1442
G1 X135.13 Y144.303 E25.15721
G1 X135.213 Y145.01 E25.19036
G1 X135.243 Y145.353 E25.20639
G1 X135.292 Y146.207 E25.24622
G1 X135.306 Y146.537 E25.2616
G1 X135.337 Y147.56 E25.30926
G1 X135.34 Y147.738 E25.31755
G1 X135.338 Y154.49 E25.63195
G1 X135.329 Y155.162 E25.66324
G1 X135.324 Y155.341 E25.67158
G1 X135.286 Y156.167 E25.71008
G1 X135.243 Y156.757 E25.73763
G1 X135.187 Y157.24 E25.76027
G1 X135.093 Y157.837 E25.78841
G1 X135.066 Y157.995 E25.79587
G1 X134.958 Y158.577 E25.82344
G1 X134.849 Y159.051 E25.84608
G1 X134.697 Y159.607 E25.87292
G1 X134.648 Y159.778 E25.88121
G1 X134.462 Y160.385 E25.91077
G1 X134.296 Y160.854 E25.93394
G1 X134.063 Y161.433 E25.963
G1 X133.992 Y161.602 E25.97153
G1 X133.735 Y162.187 E26.00129
G1 X133.525 Y162.617 E26.02357
G1 X133.261 Y163.105 E26.0494
G1 X132.883 Y163.767 E26.0849
G1 X132.603 Y164.21 E26.1093
G1 X132.245 Y164.723 E26.13843
G1 X132.155 Y164.848 E26.1456
G1 X131.806 Y165.321 E26.17298
G1 X131.701 Y165.46 E26.18109
G1 X131.227 Y166.063 E26.2168
G1 X126.548 Y171.867 E26.56395
G1 X126.085 Y172.424 E26.59767
G1 X125.618 Y172.923 E26.6295
G1 X125.096 Y173.364 E26.66132
G1 X124.527 Y173.741 E26.6931
G1 X123.917 Y174.049 E26.72492
G1 X123.258 Y174.289 E26.75758
G1 X122.51 Y174.494 E26.79369
G1 X117.687 Y175.708 E27.02527
G1 X117.018 Y175.867 E27.05729
G1 X116.346 Y175.986 E27.08907
G1 X115.663 Y176.025 E27.12093
G1 X115.046 Y175.992 E27.1497
G1 X113.676 Y175.845 E27.21386
G1 X111.009 Y175.598 E27.33857
G1 X108.332 Y175.426 E27.46348
G1 X105.698 Y175.331 E27.58621
G1 X103.024 Y175.311 E27.71073
G1 X100.347 Y175.367 E27.83541
G1 X97.715 Y175.495 E27.95811
G1 X94.225 Y175.779 E28.12116
G1 X93.112 Y175.889 E28.17324
G1 X92.429 Y175.917 E28.20507
G1 X91.748 Y175.865 E28.23687
G1 X90.799 Y175.654 E28.28214
G1 X89.731 Y175.32 E28.33424
G1 X87.072 Y174.433 E28.46476
G1 X86.431 Y174.209 E28.49638
G1 X85.801 Y173.946 E28.52817
G1 X85.205 Y173.612 E28.55998
G1 X84.653 Y173.21 E28.59178
