;FLAVOR:Marlin
;TIME:1310
;Filament used: 1.16597m
;Layer height: 0.2
;MINX:86.1
;MINY:65.296
;MINZ:0.2
;MAXX:123.9
;MAXY:144.696
;MAXZ:4
;Generated with Cura_SteamEngine 4.11.0
M140 S60
M105
M190 S60
M104 S200
M105
M109 S200
M82 ;absolute extrusion mode
G21 ;metric values
G90 ;absolute positioning
M82 ;set extruder to absolute mode
M107 ;start with the fan off
G28 X0 Y0 ;move X/Y to min endstops
G28 Z0 ;move Z to min endstops
G1 Z15.0 F100 ;move the platform down 15mm
G92 E0 ;zero the extruded length
G1 F200 E3 ;extrude 3mm of feed stock
G92 E0 ;zero the extruded length again
G1 F100
G0 Y20 F100
M117 Printing...
G5
G92 E0
G92 E0
G1 F2400 E-6
;LAYER_COUNT:20
;LAYER:0
M107
M204 S3000
M205 X10 Y10
G1 F600 Z0.275
G0 F3000 X89.907 Y70.497 Z0.275
M204 S1800
M205 X8 Y8
;TYPE:SKIRT
G1 F600 Z0.2
G1 F2400 E0
G1 X91.113 Y68.99 E0.08988
G1 X91.563 Y68.443 E0.12286
G1 X92.047 Y67.917 E0.15614
G1 X92.587 Y67.448 E0.18945
G1 X93.177 Y67.043 E0.22277
G1 X93.807 Y66.705 E0.25606
G1 X94.472 Y66.441 E0.28938
G1 X94.864 Y66.323 E0.30844
G1 X95.659 Y66.113 E0.34673
G1 X97.577 Y65.634 E0.43878
G1 X98.297 Y65.464 E0.47323
G1 X99.002 Y65.339 E0.50657
G1 X100.011 Y65.298 E0.55359
G1 X102.715 Y65.401 E0.67959
G1 X105.391 Y65.426 E0.8042
G1 X108.036 Y65.377 E0.92738
G1 X109.274 Y65.319 E0.98509
G1 X109.996 Y65.296 E1.01873
G1 X110.711 Y65.313 E1.05203
G1 X111.642 Y65.457 E1.0959
G1 X112.682 Y65.699 E1.14562
G1 X114.41 Y66.131 E1.22856
G1 X115.121 Y66.318 E1.26279
G1 X115.801 Y66.539 E1.29609
G1 X116.453 Y66.834 E1.32941
G1 X117.068 Y67.199 E1.36271
G1 X117.638 Y67.631 E1.39601
G1 X118.156 Y68.124 E1.42931
G1 X118.435 Y68.441 E1.44898
G1 X118.941 Y69.057 E1.4861
G1 X119.758 Y70.08 E1.54706
G1 X120.776 Y71.409 E1.62501
G1 X121.22 Y72.044 E1.66109
G1 X121.522 Y72.528 E1.68765
G1 X121.913 Y73.209 E1.72422
G1 X122.196 Y73.761 E1.7531
G1 X122.538 Y74.492 E1.79068
G1 X122.751 Y75.015 E1.81698
G1 X123.038 Y75.794 E1.85564
G1 X123.199 Y76.31 E1.8808
G1 X123.399 Y77.038 E1.91596
G1 X123.546 Y77.685 E1.94685
G1 X123.683 Y78.426 E1.98194
G1 X123.778 Y79.132 E2.01511
G1 X123.851 Y79.903 E2.05118
G1 X123.875 Y80.389 E2.07383
G1 X123.898 Y81.237 E2.11333
G1 X123.9 Y81.416 E2.12167
G1 X123.898 Y82.792 E2.18574
G1 X123.885 Y83.726 E2.22924
G1 X123.876 Y84.002 E2.2421
G1 X123.845 Y84.544 E2.26737
G1 X123.811 Y84.928 E2.28533
G1 X123.743 Y85.505 E2.31238
G1 X123.667 Y86.04 E2.33754
G1 X123.577 Y86.561 E2.36216
G1 X123.196 Y88.533 E2.45568
G1 X122.767 Y91.14 E2.57871
G1 X122.415 Y93.745 E2.70111
G1 X122.134 Y96.38 E2.8245
G1 X121.926 Y99.047 E2.94907
G1 X121.795 Y101.656 E3.07071
G1 X121.739 Y104.332 E3.19534
G1 X121.756 Y106.973 E3.31832
G1 X121.85 Y109.62 E3.44165
G1 X122.017 Y112.254 E3.56455
G1 X122.259 Y114.883 E3.68748
G1 X122.576 Y117.513 E3.81083
G1 X122.966 Y120.121 E3.93362
G1 X123.582 Y123.459 E4.09168
G1 X123.667 Y123.961 E4.11539
G1 X123.758 Y124.599 E4.14539
G1 X123.838 Y125.376 E4.18177
G1 X123.876 Y126.069 E4.21408
G1 X123.898 Y126.856 E4.25074
G1 X123.9 Y127.037 E4.25917
G1 X123.898 Y129.986 E4.39649
G1 X123.889 Y130.627 E4.42634
G1 X123.868 Y131.182 E4.4522
G1 X123.838 Y131.635 E4.47334
G1 X123.773 Y132.199 E4.49978
G1 X123.688 Y132.717 E4.52422
G1 X123.642 Y132.964 E4.53592
G1 X123.528 Y133.463 E4.55975
G1 X123.298 Y134.252 E4.59802
G1 X123.121 Y134.754 E4.62281
G1 X122.892 Y135.314 E4.65098
G1 X122.773 Y135.583 E4.66468
G1 X122.541 Y136.053 E4.68908
G1 X122.18 Y136.698 E4.7235
G1 X121.884 Y137.162 E4.74913
G1 X121.434 Y137.792 E4.78518
G1 X121.323 Y137.938 E4.79372
G1 X120.823 Y138.575 E4.83143
G1 X118.846 Y141.027 E4.97809
G1 X118.388 Y141.579 E5.01149
G1 X117.902 Y142.103 E5.04477
G1 X117.359 Y142.569 E5.07809
G1 X116.769 Y142.972 E5.11136
G1 X116.136 Y143.307 E5.14471
G1 X115.259 Y143.635 E5.18831
G1 X114.582 Y143.82 E5.22098
G1 X112.466 Y144.353 E5.32259
G1 X111.731 Y144.526 E5.35775
G1 X111.026 Y144.651 E5.39109
G1 X110.313 Y144.696 E5.42436
G1 X109.946 Y144.688 E5.44145
G1 X108.883 Y144.635 E5.49101
G1 X106.181 Y144.537 E5.61691
G1 X103.54 Y144.517 E5.73989
G1 X100.027 Y144.604 E5.90352
G1 X99.099 Y144.645 E5.94677
G1 X98.384 Y144.636 E5.98007
G1 X97.674 Y144.548 E6.01338
G1 X96.913 Y144.361 E6.04987
G1 X95.787 Y144.009 E6.10481
G1 X95.048 Y143.761 E6.1411
G1 X94.414 Y143.54 E6.17237
G1 X93.753 Y143.268 E6.20565
G1 X93.127 Y142.923 E6.23893
G1 X92.542 Y142.51 E6.27228
G1 X92.008 Y142.035 E6.30556
G1 X91.597 Y141.586 E6.3339
G1 X90.901 Y140.746 E6.3847
G1 X90.241 Y139.919 E6.43396
G1 X89.212 Y138.575 E6.51278
G1 X88.776 Y137.95 E6.54827
G1 X88.476 Y137.469 E6.57466
G1 X88.08 Y136.778 E6.61175
G1 X87.804 Y136.239 E6.63995
G1 X87.462 Y135.508 E6.67753
G1 X87.247 Y134.98 E6.70407
G1 X86.962 Y134.205 E6.74252
G1 X86.802 Y133.693 E6.7675
G1 X86.598 Y132.95 E6.80338
G1 X86.452 Y132.304 E6.83422
G1 X86.317 Y131.574 E6.86878
G1 X86.222 Y130.865 E6.90209
G1 X86.149 Y130.097 E6.93802
G1 X86.126 Y129.618 E6.96035
G1 X86.104 Y128.841 E6.99654
G1 X86.101 Y128.66 E7.00497
G1 X86.102 Y127.2 E7.07295
G1 X86.115 Y126.272 E7.11617
G1 X86.124 Y125.996 E7.12903
G1 X86.155 Y125.455 E7.15426
G1 X86.189 Y125.073 E7.17212
G1 X86.26 Y124.47 E7.20039
G1 X86.337 Y123.935 E7.22556
G1 X86.423 Y123.439 E7.249
G1 X86.804 Y121.467 E7.34252
G1 X87.233 Y118.86 E7.46555
G1 X87.585 Y116.255 E7.58795
G1 X87.866 Y113.62 E7.71134
G1 X88.074 Y110.953 E7.83591
G1 X88.205 Y108.344 E7.95754
G1 X88.261 Y105.668 E8.08218
G1 X88.244 Y103.027 E8.20516
G1 X88.15 Y100.38 E8.32849
G1 X87.983 Y97.746 E8.45139
G1 X87.741 Y95.116 E8.57437
G1 X87.424 Y92.487 E8.69767
G1 X87.034 Y89.882 E8.82032
G1 X86.418 Y86.541 E8.97852
G1 X86.328 Y86.011 E9.00355
G1 X86.242 Y85.401 E9.03223
G1 X86.162 Y84.624 E9.0686
G1 X86.133 Y84.12 E9.09211
G1 X86.125 Y83.932 E9.10087
G1 X86.103 Y83.15 E9.1373
G1 X86.1 Y82.963 E9.14601
G1 X86.102 Y81.926 E9.1943
G1 X86.139 Y80.172 E9.27599
G1 X86.19 Y79.399 E9.31206
G1 X86.25 Y78.893 E9.33579
G1 X86.378 Y78.066 E9.37476
G1 X86.493 Y77.501 E9.4016
G1 X86.673 Y76.761 E9.43707
G1 X86.863 Y76.111 E9.4686
G1 X87.1 Y75.403 E9.50336
G1 X87.322 Y74.83 E9.53198
G1 X87.635 Y74.107 E9.56866
G1 X87.861 Y73.643 E9.5927
G1 X88.255 Y72.904 E9.63169
G1 X88.568 Y72.381 E9.66007
G1 X88.986 Y71.736 E9.69586
G1 X89.317 Y71.275 E9.72229
G1 X89.795 Y70.641 E9.75926
G1 X89.907 Y70.497 E9.76776
M204 S3000
M205 X10 Y10
G0 F3000 X90.344 Y70.847
M204 S1800
M205 X8 Y8
G1 F2400 X91.545 Y69.346 E9.85727
G1 X91.995 Y68.799 E9.89025
G1 X92.459 Y68.297 E9.92208
G1 X92.979 Y67.854 E9.95389
G1 X93.547 Y67.474 E9.98571
G1 X94.155 Y67.163 E10.01751
G1 X95.008 Y66.864 E10.0596
G1 X95.795 Y66.656 E10.0975
G1 X97.706 Y66.179 E10.18922
G1 X98.426 Y66.009 E10.22367
G1 X99.099 Y65.891 E10.25548
G1 X99.99 Y65.857 E10.297
G1 X102.724 Y65.961 E10.4244
G1 X105.397 Y65.986 E10.54887
G1 X108.037 Y65.937 E10.67182
G1 X109.292 Y65.879 E10.73032
G1 X110.014 Y65.856 E10.76396
G1 X110.697 Y65.874 E10.79577
G1 X111.515 Y66.003 E10.83433
G1 X112.546 Y66.242 E10.88361
G1 X114.267 Y66.673 E10.96623
G1 X114.978 Y66.86 E11.00046
G1 X115.628 Y67.072 E11.03229
G1 X116.248 Y67.359 E11.06411
G1 X116.831 Y67.716 E11.09594
G1 X117.368 Y68.138 E11.12774
G1 X118.002 Y68.797 E11.17032
G1 X118.504 Y69.407 E11.20711
G1 X119.237 Y70.323 E11.26174
G1 X120.331 Y71.75 E11.34546
G1 X120.746 Y72.343 E11.37917
G1 X121.04 Y72.813 E11.40498
G1 X121.416 Y73.466 E11.44007
G1 X121.692 Y74.005 E11.46826
G1 X122.02 Y74.707 E11.50434
G1 X122.228 Y75.215 E11.52991
G1 X122.504 Y75.964 E11.56707
G1 X122.661 Y76.464 E11.59148
G1 X122.854 Y77.164 E11.62529
G1 X122.997 Y77.794 E11.65537
G1 X123.128 Y78.503 E11.68894
G1 X123.221 Y79.191 E11.72127
G1 X123.292 Y79.933 E11.75598
G1 X123.315 Y80.405 E11.77798
G1 X123.338 Y81.253 E11.81748
G1 X123.34 Y81.416 E11.82507
G1 X123.338 Y82.784 E11.88877
G1 X123.325 Y83.718 E11.93227
G1 X123.316 Y83.97 E11.94401
G1 X123.285 Y84.512 E11.96929
G1 X123.255 Y84.863 E11.98569
G1 X123.187 Y85.44 E12.01275
G1 X123.113 Y85.959 E12.03716
G1 X123.027 Y86.455 E12.0606
G1 X122.649 Y88.411 E12.15336
G1 X122.21 Y91.077 E12.27918
G1 X121.858 Y93.684 E12.40167
G1 X121.574 Y96.347 E12.52637
G1 X121.369 Y98.974 E12.64907
G1 X121.235 Y101.651 E12.77388
G1 X121.179 Y104.324 E12.89837
G1 X121.197 Y106.996 E13.02279
G1 X121.29 Y109.638 E13.14589
G1 X121.459 Y112.306 E13.27038
G1 X121.701 Y114.931 E13.39312
G1 X122.022 Y117.594 E13.51802
G1 X122.415 Y120.219 E13.64162
G1 X123.03 Y123.556 E13.79962
G1 X123.182 Y124.515 E13.84483
G1 X123.248 Y125.05 E13.86993
G1 X123.279 Y125.408 E13.88666
G1 X123.316 Y126.085 E13.91823
G1 X123.338 Y126.872 E13.95489
G1 X123.34 Y127.037 E13.96258
G1 X123.338 Y129.978 E14.09952
G1 X123.329 Y130.619 E14.12937
G1 X123.308 Y131.157 E14.15444
G1 X123.279 Y131.596 E14.17493
G1 X123.22 Y132.11 E14.19902
G1 X123.137 Y132.614 E14.22281
G1 X122.987 Y133.317 E14.25628
G1 X122.763 Y134.087 E14.29362
G1 X122.459 Y134.899 E14.33399
G1 X122.05 Y135.786 E14.37947
G1 X121.694 Y136.418 E14.41325
G1 X121.425 Y136.842 E14.43663
G1 X120.983 Y137.459 E14.47197
G1 X120.882 Y137.592 E14.47975
G1 X120.387 Y138.224 E14.51713
G1 X118.415 Y140.669 E14.66339
G1 X117.957 Y141.221 E14.69679
G1 X117.491 Y141.72 E14.72859
G1 X116.97 Y142.162 E14.7604
G1 X116.4 Y142.54 E14.79225
G1 X115.791 Y142.848 E14.82402
G1 X115.102 Y143.097 E14.85814
G1 X114.439 Y143.278 E14.89014
G1 X112.329 Y143.81 E14.99147
G1 X111.603 Y143.981 E15.0262
G1 X110.929 Y144.098 E15.05805
G1 X109.974 Y144.129 E15.10254
G1 X108.861 Y144.073 E15.15443
G1 X106.205 Y143.977 E15.27819
G1 X103.531 Y143.957 E15.4027
G1 X99.988 Y144.045 E15.56773
G1 X99.074 Y144.085 E15.61033
G1 X98.391 Y144.075 E15.64214
G1 X97.714 Y143.986 E15.67393
G1 X97.08 Y143.826 E15.70438
G1 X95.965 Y143.477 E15.75879
G1 X95.233 Y143.233 E15.79471
G1 X94.599 Y143.012 E15.82598
G1 X93.968 Y142.749 E15.85781
G1 X93.372 Y142.415 E15.88962
G1 X92.819 Y142.014 E15.92143
G1 X92.317 Y141.55 E15.95326
G1 X92.028 Y141.228 E15.97341
G1 X91.339 Y140.396 E16.02371
G1 X90.686 Y139.578 E16.07245
G1 X89.657 Y138.234 E16.15127
G1 X89.25 Y137.652 E16.18433
G1 X88.958 Y137.184 E16.21002
G1 X88.577 Y136.521 E16.24563
G1 X88.308 Y135.995 E16.27314
G1 X87.98 Y135.293 E16.30922
G1 X87.77 Y134.781 E16.33499
G1 X87.496 Y134.035 E16.37199
G1 X87.34 Y133.538 E16.39625
G1 X87.144 Y132.825 E16.43068
G1 X87.001 Y132.194 E16.46081
G1 X86.872 Y131.497 E16.49381
G1 X86.779 Y130.807 E16.52623
G1 X86.709 Y130.067 E16.56084
G1 X86.685 Y129.602 E16.58252
G1 X86.663 Y128.825 E16.61872
G1 X86.661 Y128.66 E16.6264
G1 X86.662 Y127.208 E16.69401
G1 X86.675 Y126.28 E16.73723
G1 X86.684 Y126.028 E16.74897
G1 X86.715 Y125.487 E16.7742
G1 X86.745 Y125.138 E16.79052
G1 X86.816 Y124.535 E16.81879
G1 X86.891 Y124.018 E16.84311
G1 X86.973 Y123.545 E16.86547
G1 X87.351 Y121.589 E16.95823
G1 X87.79 Y118.923 E17.08404
G1 X88.142 Y116.316 E17.20654
G1 X88.426 Y113.653 E17.33124
G1 X88.631 Y111.026 E17.45394
G1 X88.765 Y108.349 E17.57875
G1 X88.821 Y105.676 E17.70324
G1 X88.803 Y103.004 E17.82766
G1 X88.71 Y100.362 E17.95076
G1 X88.541 Y97.694 E18.07524
G1 X88.299 Y95.068 E18.19804
G1 X87.978 Y92.406 E18.32289
G1 X87.586 Y89.784 E18.44634
G1 X86.97 Y86.444 E18.60449
G1 X86.883 Y85.931 E18.62871
G1 X86.798 Y85.335 E18.65675
G1 X86.721 Y84.591 E18.69158
G1 X86.684 Y83.916 E18.72305
G1 X86.662 Y83.134 E18.75948
G1 X86.66 Y82.964 E18.7674
G1 X86.662 Y81.938 E18.81517
G1 X86.699 Y80.184 E18.89686
G1 X86.746 Y79.462 E18.93055
G1 X86.875 Y78.482 E18.97658
G1 X86.999 Y77.811 E19.00836
G1 X87.135 Y77.208 E19.03714
G1 X87.342 Y76.459 E19.07332
G1 X87.519 Y75.899 E19.10067
G1 X87.768 Y75.223 E19.13421
G1 X88.012 Y74.632 E19.16399
G1 X88.294 Y74.03 E19.19494
G1 X88.56 Y73.508 E19.22222
G1 X88.967 Y72.802 E19.26017
G1 X89.261 Y72.332 E19.28598
G1 X89.666 Y71.746 E19.31915
G1 X89.764 Y71.612 E19.32688
G1 X90.242 Y70.978 E19.36385
G1 X90.344 Y70.847 E19.37159
M204 S3000
M205 X10 Y10
G0 F3000 X90.781 Y71.196
M204 S1800
M205 X8 Y8
G1 F2400 X91.977 Y69.702 E19.4607
G1 X92.427 Y69.155 E19.49368
G1 X92.87 Y68.679 E19.52396
G1 X93.368 Y68.262 E19.5542
G1 X93.913 Y67.909 E19.58444
G1 X94.498 Y67.625 E19.61472
G1 X95.151 Y67.405 E19.6468
G1 X95.931 Y67.199 E19.68437
G1 X97.835 Y66.724 E19.77575
G1 X98.555 Y66.554 E19.81019
G1 X99.195 Y66.444 E19.84043
G1 X99.968 Y66.417 E19.87645
G1 X102.697 Y66.521 E20.00361
G1 X105.402 Y66.546 E20.12958
G1 X108.073 Y66.496 E20.25397
G1 X109.31 Y66.439 E20.31163
G1 X110.032 Y66.416 E20.34527
G1 X110.681 Y66.435 E20.3755
G1 X111.389 Y66.549 E20.40889
G1 X112.411 Y66.786 E20.45774
G1 X114.125 Y67.215 E20.54002
G1 X114.836 Y67.402 E20.57425
G1 X115.453 Y67.605 E20.6045
G1 X116.04 Y67.883 E20.63474
G1 X116.589 Y68.231 E20.66501
G1 X117.091 Y68.643 E20.69525
G1 X117.57 Y69.153 E20.72783
G1 X118.067 Y69.757 E20.76425
G1 X118.869 Y70.761 E20.82408
G1 X119.887 Y72.09 E20.90203
G1 X120.273 Y72.642 E20.9334
G1 X120.558 Y73.098 E20.95844
G1 X120.918 Y73.724 E20.99206
G1 X121.188 Y74.248 E21.01951
G1 X121.503 Y74.921 E21.05411
G1 X121.705 Y75.415 E21.07896
G1 X121.971 Y76.134 E21.11466
G1 X122.123 Y76.619 E21.13833
G1 X122.308 Y77.29 E21.17074
G1 X122.448 Y77.904 E21.20006
G1 X122.574 Y78.581 E21.23213
G1 X122.664 Y79.249 E21.26351
G1 X122.732 Y79.963 E21.29691
G1 X122.755 Y80.42 E21.31822
G1 X122.778 Y81.268 E21.35772
G1 X122.78 Y81.415 E21.36456
G1 X122.778 Y82.776 E21.42794
G1 X122.765 Y83.71 E21.47143
G1 X122.757 Y83.938 E21.48206
G1 X122.726 Y84.48 E21.50734
G1 X122.699 Y84.797 E21.52215
G1 X122.631 Y85.374 E21.5492
G1 X122.559 Y85.877 E21.57286
G1 X122.477 Y86.349 E21.59517
G1 X122.095 Y88.323 E21.68879
G1 X121.658 Y90.981 E21.81422
G1 X121.301 Y93.62 E21.93823
G1 X121.018 Y96.279 E22.06274
G1 X120.807 Y98.976 E22.18871
G1 X120.676 Y101.612 E22.3116
G1 X120.619 Y104.316 E22.43754
G1 X120.636 Y106.984 E22.56177
G1 X120.732 Y109.696 E22.68814
G1 X120.899 Y112.32 E22.81057
G1 X121.147 Y115.015 E22.93659
G1 X121.467 Y117.669 E23.06106
G1 X121.863 Y120.315 E23.18565
G1 X122.478 Y123.653 E23.34369
G1 X122.628 Y124.596 E23.38815
G1 X122.692 Y125.117 E23.4126
G1 X122.72 Y125.44 E23.42769
G1 X122.749 Y125.945 E23.45125
G1 X122.756 Y126.1 E23.45847
G1 X122.778 Y126.887 E23.49513
G1 X122.78 Y127.037 E23.50212
G1 X122.778 Y129.97 E23.63869
G1 X122.769 Y130.611 E23.66854
G1 X122.749 Y131.133 E23.69287
G1 X122.667 Y132.022 E23.73444
G1 X122.541 Y132.759 E23.76925
G1 X122.381 Y133.415 E23.80069
G1 X122.228 Y133.923 E23.8254
G1 X121.939 Y134.691 E23.86361
G1 X121.558 Y135.518 E23.90601
G1 X121.209 Y136.138 E23.93914
G1 X120.777 Y136.792 E23.97563
G1 X120.441 Y137.247 E24.00197
G1 X119.951 Y137.872 E24.03895
G1 X117.984 Y140.311 E24.18485
G1 X117.526 Y140.863 E24.21825
G1 X117.082 Y141.337 E24.24849
G1 X116.582 Y141.752 E24.27875
G1 X116.035 Y142.103 E24.30901
G1 X115.45 Y142.384 E24.33923
G1 X114.944 Y142.56 E24.36418
G1 X114.296 Y142.737 E24.39546
G1 X112.112 Y143.286 E24.50032
G1 X111.474 Y143.436 E24.53084
G1 X110.834 Y143.545 E24.56107
G1 X110.002 Y143.569 E24.59982
G1 X108.957 Y143.517 E24.64854
G1 X106.195 Y143.417 E24.77724
G1 X103.521 Y143.397 E24.90175
G1 X100.003 Y143.484 E25.06562
G1 X99.05 Y143.526 E25.11004
G1 X98.4 Y143.514 E25.14031
G1 X97.757 Y143.423 E25.17055
G1 X97.247 Y143.292 E25.19507
G1 X96.142 Y142.946 E25.24898
G1 X95.417 Y142.704 E25.28457
G1 X94.783 Y142.483 E25.31584
G1 X94.184 Y142.232 E25.34608
G1 X93.62 Y141.909 E25.37634
G1 X93.1 Y141.519 E25.40661
G1 X92.459 Y140.87 E25.44908
G1 X91.776 Y140.046 E25.49892
G1 X91.131 Y139.238 E25.54706
G1 X90.102 Y137.894 E25.62588
G1 X89.724 Y137.354 E25.65657
G1 X89.44 Y136.899 E25.68155
G1 X89.075 Y136.264 E25.71565
G1 X88.812 Y135.752 E25.74246
G1 X88.497 Y135.079 E25.77706
G1 X88.293 Y134.581 E25.80211
G1 X88.029 Y133.865 E25.83765
G1 X87.878 Y133.384 E25.86112
G1 X87.69 Y132.7 E25.89415
G1 X87.551 Y132.084 E25.92356
G1 X87.426 Y131.419 E25.95507
G1 X87.336 Y130.748 E25.98659
G1 X87.268 Y130.036 E26.0199
G1 X87.245 Y129.586 E26.04088
G1 X87.223 Y128.809 E26.07707
G1 X87.221 Y128.66 E26.08401
G1 X87.222 Y127.216 E26.15125
G1 X87.235 Y126.288 E26.19447
G1 X87.243 Y126.06 E26.20509
G1 X87.274 Y125.519 E26.23032
G1 X87.301 Y125.204 E26.24504
G1 X87.372 Y124.601 E26.27331
