;FLAVOR:Marlin
;TIME:240
;Filament used: 0.195381m
;Layer height: 0.2
;MINX:55.477
;MINY:90.292
;MINZ:0.2
;MAXX:154.505
;MAXY:119.697
;MAXZ:3
;Generated with Cura_SteamEngine 4.11.0
M140 S60
M105
M190 S60
M104 S200
M105
M109 S200
M82 ;absolute extrusion mode
G21 ;metric values
G90 ;absolute positioning
M82 ;set extruder to absolute mode
M107 ;start with the fan off
G28 X0 Y0 ;move X/Y to min endstops
G28 Z0 ;move Z to min endstops
G1 Z15.0 F100 ;move the platform down 15mm
G92 E0 ;zero the extruded length
G1 F200 E3 ;extrude 3mm of feed stock
G92 E0 ;zero the extruded length again
G1 F100
G0 Y20 F100
M117 Printing...
G5
G92 E0
G92 E0
G1 F2400 E-6
;LAYER_COUNT:15
;LAYER:0
M107
M204 S3000
M205 X10 Y10
G1 F600 Z0.275
G0 F3000 X74.875 Y92.485 Z0.275
M204 S1800
M205 X8 Y8
;TYPE:SKIRT
G1 F600 Z0.2
G1 F2400 E0
G1 X75.421 Y92.07 E0.03193
G1 X76.099 Y91.624 E0.06972
G1 X76.39 Y91.458 E0.08532
G1 X77.019 Y91.143 E0.11808
G1 X77.294 Y91.024 E0.13203
G1 X77.914 Y90.794 E0.16282
G1 X78.46 Y90.627 E0.18941
G1 X78.969 Y90.506 E0.21377
G1 X79.201 Y90.461 E0.22478
G1 X79.701 Y90.385 E0.24833
G1 X80.354 Y90.321 E0.27888
G1 X80.713 Y90.307 E0.29561
G1 X81.708 Y90.292 E0.34194
G1 X92.472 Y90.294 E0.84316
G1 X93.12 Y90.303 E0.87334
G1 X93.769 Y90.331 E0.90359
G1 X94.541 Y90.388 E0.93963
G1 X96.141 Y90.528 E1.01442
G1 X98.781 Y90.683 E1.13756
G1 X101.427 Y90.764 E1.26083
G1 X104.052 Y90.77 E1.38306
G1 X107.495 Y90.662 E1.54346
G1 X108.197 Y90.679 E1.57615
G1 X108.426 Y90.697 E1.58685
G1 X109.029 Y90.773 E1.61515
G1 X109.896 Y90.926 E1.65615
G1 X112.402 Y91.406 E1.77496
G1 X113.081 Y91.546 E1.80724
G1 X113.773 Y91.729 E1.84057
G1 X114.262 Y91.911 E1.86487
G1 X114.389 Y91.964 E1.87127
G1 X116.882 Y92.962 E1.99631
G1 X119.38 Y93.882 E2.12027
G1 X121.885 Y94.723 E2.24331
G1 X124.418 Y95.496 E2.36663
G1 X126.98 Y96.198 E2.49032
G1 X129.536 Y96.823 E2.61285
G1 X132.157 Y97.383 E2.73765
G1 X134.712 Y97.855 E2.85863
G1 X137.352 Y98.266 E2.98304
G1 X139.979 Y98.599 E3.10634
G1 X142.616 Y98.859 E3.22973
G1 X145.247 Y99.042 E3.35254
G1 X146.856 Y99.118 E3.42754
G1 X148.132 Y99.167 E3.487
G1 X148.844 Y99.234 E3.5203
G1 X149.372 Y99.337 E3.54535
G1 X149.59 Y99.389 E3.55579
G1 X150.275 Y99.593 E3.58907
G1 X150.934 Y99.873 E3.62241
G1 X151.557 Y100.224 E3.6557
G1 X152.136 Y100.643 E3.68898
G1 X152.666 Y101.124 E3.72231
G1 X153.138 Y101.661 E3.7556
G1 X153.548 Y102.247 E3.7889
G1 X153.89 Y102.876 E3.82224
G1 X154.159 Y103.538 E3.85552
G1 X154.353 Y104.227 E3.88885
G1 X154.469 Y104.933 E3.92216
G1 X154.505 Y105.647 E3.95545
G1 X154.461 Y106.361 E3.98876
G1 X154.338 Y107.066 E4.02208
G1 X154.137 Y107.752 E4.05537
G1 X153.861 Y108.412 E4.08868
G1 X153.513 Y109.037 E4.12199
G1 X153.097 Y109.619 E4.1553
G1 X152.619 Y110.151 E4.18861
G1 X151.973 Y110.713 E4.22848
G1 X151.31 Y111.216 E4.26723
G1 X145.208 Y115.664 E4.61884
G1 X144.73 Y116.002 E4.6461
G1 X144.247 Y116.325 E4.67315
G1 X143.816 Y116.586 E4.69662
G1 X143.63 Y116.689 E4.70652
G1 X143.164 Y116.923 E4.7308
G1 X143.04 Y116.979 E4.73713
G1 X142.507 Y117.191 E4.76384
G1 X142.107 Y117.33 E4.78356
G1 X141.352 Y117.542 E4.82008
G1 X140.98 Y117.622 E4.83779
G1 X140.162 Y117.743 E4.8763
G1 X139.351 Y117.797 E4.91415
G1 X138.295 Y117.815 E4.96332
G1 X126.486 Y117.814 E5.5132
G1 X125.869 Y117.805 E5.54193
G1 X125.301 Y117.772 E5.56843
G1 X124.665 Y117.706 E5.5982
G1 X123.981 Y117.603 E5.63041
G1 X123.452 Y117.49 E5.6556
G1 X122.811 Y117.323 E5.68644
G1 X121.498 Y116.965 E5.74981
G1 X118.901 Y116.335 E5.87425
G1 X116.311 Y115.783 E5.99756
G1 X113.706 Y115.305 E6.12088
G1 X111.079 Y114.899 E6.24466
G1 X108.475 Y114.572 E6.36686
G1 X105.837 Y114.316 E6.49028
G1 X103.192 Y114.134 E6.61373
G1 X100.559 Y114.029 E6.73643
G1 X97.878 Y113.997 E6.86128
G1 X95.269 Y114.04 E6.98278
G1 X92.594 Y114.16 E7.10747
G1 X89.96 Y114.352 E7.23044
G1 X87.335 Y114.619 E7.3533
G1 X84.73 Y114.959 E7.47563
G1 X82.069 Y115.382 E7.6011
G1 X79.491 Y115.868 E7.72325
G1 X76.935 Y116.425 E7.84506
G1 X74.353 Y117.062 E7.9689
G1 X71.761 Y117.784 E8.09419
G1 X69.272 Y118.55 E8.21545
G1 X67.74 Y119.061 E8.29065
G1 X66.873 Y119.356 E8.33329
G1 X66.184 Y119.548 E8.3666
G1 X65.478 Y119.662 E8.3999
G1 X64.764 Y119.697 E8.43318
G1 X63.875 Y119.628 E8.4747
G1 X62.522 Y119.428 E8.53839
G1 X61.735 Y119.317 E8.5754
G1 X61.033 Y119.178 E8.60872
G1 X60.444 Y119 E8.63737
G1 X59.778 Y118.74 E8.67066
G1 X59.152 Y118.412 E8.70357
G1 X58.971 Y118.304 E8.71339
G1 X58.378 Y117.904 E8.74669
G1 X57.814 Y117.421 E8.78127
G1 X57.658 Y117.271 E8.79135
G1 X57.171 Y116.748 E8.82462
G1 X56.727 Y116.145 E8.85949
G1 X56.612 Y115.968 E8.86932
G1 X56.257 Y115.347 E8.90263
G1 X55.99 Y114.738 E8.93359
G1 X55.915 Y114.539 E8.9435
G1 X55.701 Y113.857 E8.97678
G1 X55.564 Y113.158 E9.00995
G1 X55.535 Y112.948 E9.01982
G1 X55.477 Y112.235 E9.05313
G1 X55.505 Y111.45 E9.0897
G1 X55.526 Y111.235 E9.09976
G1 X55.636 Y110.528 E9.13308
G1 X55.818 Y109.852 E9.16568
G1 X55.883 Y109.655 E9.17534
G1 X56.145 Y108.989 E9.20866
G1 X56.452 Y108.403 E9.23947
G1 X56.559 Y108.222 E9.24926
G1 X56.957 Y107.628 E9.28255
G1 X57.442 Y107.056 E9.31747
G1 X57.594 Y106.897 E9.32771
G1 X58.07 Y106.448 E9.35818
G1 X58.683 Y105.926 E9.39567
G1 X74.432 Y92.843 E10.34904
G1 X74.875 Y92.485 E10.37556
M204 S3000
M205 X10 Y10
G0 F3000 X75.227 Y92.921
M204 S1800
M205 X8 Y8
G1 F2400 X75.758 Y92.517 E10.40663
G1 X76.376 Y92.11 E10.44109
G1 X76.667 Y91.944 E10.45669
G1 X77.242 Y91.657 E10.48661
G1 X77.517 Y91.538 E10.50057
G1 X78.082 Y91.328 E10.52863
G1 X78.607 Y91.167 E10.5542
G1 X79.308 Y91.011 E10.58764
G1 X80.047 Y90.909 E10.62238
G1 X80.722 Y90.867 E10.65387
G1 X81.708 Y90.852 E10.69979
G1 X92.464 Y90.854 E11.20063
G1 X93.112 Y90.863 E11.23081
G1 X93.728 Y90.89 E11.25952
G1 X94.493 Y90.946 E11.29524
G1 X96.097 Y91.086 E11.37021
G1 X98.766 Y91.243 E11.49471
G1 X101.409 Y91.324 E11.61783
G1 X104.068 Y91.33 E11.74165
G1 X107.512 Y91.222 E11.90209
G1 X108.153 Y91.237 E11.93195
G1 X108.382 Y91.255 E11.94265
G1 X108.933 Y91.325 E11.96851
G1 X109.791 Y91.476 E12.00907
G1 X112.289 Y91.954 E12.1275
G1 X112.968 Y92.094 E12.15978
G1 X113.628 Y92.271 E12.1916
G1 X114.162 Y92.477 E12.21825
G1 X116.701 Y93.493 E12.34559
G1 X119.175 Y94.404 E12.46836
G1 X121.72 Y95.259 E12.59337
G1 X124.251 Y96.03 E12.71657
G1 X126.835 Y96.739 E12.84134
G1 X129.43 Y97.373 E12.96573
G1 X132.013 Y97.925 E13.08872
G1 X134.628 Y98.408 E13.21254
G1 X137.269 Y98.819 E13.337
G1 X139.923 Y99.156 E13.46157
G1 X142.557 Y99.415 E13.58482
G1 X145.225 Y99.602 E13.70935
G1 X146.82 Y99.677 E13.78371
G1 X148.111 Y99.726 E13.84386
G1 X148.791 Y99.792 E13.87568
G1 X149.46 Y99.933 E13.90751
G1 X150.114 Y100.13 E13.93932
G1 X150.741 Y100.403 E13.97116
G1 X151.331 Y100.746 E14.00294
G1 X151.878 Y101.156 E14.03477
G1 X152.373 Y101.627 E14.06659
G1 X152.809 Y102.153 E14.0984
G1 X153.181 Y102.726 E14.13021
G1 X153.484 Y103.339 E14.16205
G1 X153.713 Y103.983 E14.19388
G1 X153.865 Y104.649 E14.22569
G1 X153.938 Y105.328 E14.25749
G1 X153.931 Y106.011 E14.28929
G1 X153.845 Y106.689 E14.32111
G1 X153.68 Y107.352 E14.35293
G1 X153.439 Y107.991 E14.38473
G1 X153.125 Y108.598 E14.41655
G1 X152.742 Y109.164 E14.44837
G1 X152.296 Y109.681 E14.48017
G1 X151.635 Y110.267 E14.5213
G1 X150.882 Y110.837 E14.56527
G1 X144.885 Y115.206 E14.91077
G1 X144.407 Y115.544 E14.93803
G1 X143.938 Y115.858 E14.96431
G1 X143.359 Y116.199 E14.9956
G1 X142.81 Y116.468 E15.02407
G1 X142.323 Y116.662 E15.04847
G1 X141.923 Y116.801 E15.06819
G1 X141.234 Y116.994 E15.10151
G1 X140.862 Y117.074 E15.11923
G1 X140.115 Y117.185 E15.15439
G1 X139.341 Y117.237 E15.19052
G1 X138.295 Y117.255 E15.23923
G1 X126.494 Y117.254 E15.78873
G1 X125.877 Y117.245 E15.81747
G1 X125.359 Y117.215 E15.84163
G1 X124.723 Y117.149 E15.8714
G1 X124.075 Y117.051 E15.90192
G1 X123.592 Y116.948 E15.92491
G1 X122.959 Y116.783 E15.95537
G1 X121.609 Y116.415 E16.02053
G1 X119.039 Y115.791 E16.14368
G1 X116.426 Y115.235 E16.26807
G1 X113.784 Y114.749 E16.39316
G1 X111.203 Y114.351 E16.51476
G1 X108.525 Y114.015 E16.64044
G1 X105.86 Y113.756 E16.76512
G1 X103.216 Y113.574 E16.88852
G1 X100.589 Y113.469 E17.01095
G1 X97.876 Y113.437 E17.13728
G1 X95.234 Y113.481 E17.26032
G1 X92.563 Y113.6 E17.38482
G1 X89.935 Y113.792 E17.50752
G1 X87.276 Y114.062 E17.63197
G1 X84.639 Y114.406 E17.7558
G1 X81.987 Y114.828 E17.88084
G1 X79.372 Y115.321 E18.00475
G1 X76.826 Y115.875 E18.12608
G1 X74.172 Y116.531 E18.25338
G1 X71.624 Y117.24 E18.37653
G1 X69.067 Y118.028 E18.50112
G1 X67.598 Y118.518 E18.57323
G1 X66.693 Y118.826 E18.61774
G1 X66.034 Y119.008 E18.64958
G1 X65.359 Y119.111 E18.68137
G1 X64.676 Y119.135 E18.71319
G1 X63.957 Y119.074 E18.74679
G1 X62.644 Y118.88 E18.8086
G1 X61.813 Y118.763 E18.84767
G1 X61.143 Y118.628 E18.8795
G1 X60.618 Y118.468 E18.90505
G1 X59.982 Y118.218 E18.93687
G1 X59.439 Y117.931 E18.96547
G1 X59.258 Y117.823 E18.97529
G1 X58.692 Y117.439 E19.00714
G1 X58.202 Y117.018 E19.03722
G1 X58.046 Y116.868 E19.04729
G1 X57.582 Y116.366 E19.07913
G1 X57.197 Y115.84 E19.10948
G1 X57.082 Y115.663 E19.11931
G1 X56.744 Y115.069 E19.15113
G1 X56.514 Y114.541 E19.17795
G1 X56.439 Y114.342 E19.18785
G1 X56.236 Y113.689 E19.21969
G1 X56.119 Y113.081 E19.24852
G1 X56.09 Y112.871 E19.25839
G1 X56.036 Y112.19 E19.2902
G1 X56.063 Y111.504 E19.32217
G1 X56.084 Y111.289 E19.33223
G1 X56.19 Y110.614 E19.36405
G1 X56.35 Y110.027 E19.39238
G1 X56.415 Y109.83 E19.40204
G1 X56.667 Y109.195 E19.43385
G1 X56.934 Y108.688 E19.46053
G1 X57.041 Y108.507 E19.47032
G1 X57.422 Y107.94 E19.50213
G1 X57.847 Y107.443 E19.53258
G1 X57.999 Y107.284 E19.54282
G1 X58.433 Y106.874 E19.57062
G1 X59.041 Y106.357 E19.60778
G1 X74.784 Y93.279 E20.56079
G1 X75.227 Y92.921 E20.58731
M204 S3000
M205 X10 Y10
G0 F3000 X75.579 Y93.356
M204 S1800
M205 X8 Y8
G1 F2400 X76.095 Y92.964 E20.61748
G1 X76.654 Y92.597 E20.64862
G1 X76.945 Y92.431 E20.66422
G1 X77.464 Y92.171 E20.69125
G1 X77.739 Y92.052 E20.7052
G1 X78.25 Y91.862 E20.73059
G1 X78.755 Y91.707 E20.75519
G1 X79.415 Y91.561 E20.78666
G1 X80.11 Y91.465 E20.81933
G1 X80.73 Y91.427 E20.84826
G1 X81.707 Y91.412 E20.89376
G1 X92.456 Y91.414 E21.39427
G1 X93.265 Y91.427 E21.43195
G1 X93.687 Y91.448 E21.45162
G1 X94.444 Y91.504 E21.48697
G1 X96.05 Y91.644 E21.56203
G1 X98.717 Y91.801 E21.68644
G1 X101.424 Y91.884 E21.81255
G1 X104.085 Y91.89 E21.93645
G1 X107.53 Y91.782 E22.09695
G1 X108.109 Y91.795 E22.12391
G1 X108.338 Y91.813 E22.13461
G1 X108.836 Y91.876 E22.15798
G1 X109.686 Y92.026 E22.19817
G1 X112.176 Y92.503 E22.31623
G1 X112.855 Y92.643 E22.34851
G1 X113.482 Y92.813 E22.37876
G1 X113.966 Y93.002 E22.40295
G1 X116.476 Y94.006 E22.52883
G1 X119.022 Y94.943 E22.65516
G1 X121.545 Y95.791 E22.7791
G1 X124.084 Y96.565 E22.9027
G1 X126.698 Y97.282 E23.02891
G1 X129.323 Y97.923 E23.15473
G1 X131.89 Y98.472 E23.27697
G1 X134.55 Y98.964 E23.40293
G1 X137.182 Y99.373 E23.52696
G1 X139.837 Y99.71 E23.65158
G1 X142.533 Y99.975 E23.77772
G1 X145.203 Y100.162 E23.90235
G1 X146.777 Y100.236 E23.97572
G1 X148.089 Y100.286 E24.03686
G1 X148.736 Y100.351 E24.06714
G1 X149.33 Y100.478 E24.09542
G1 X149.951 Y100.667 E24.12565
G1 X150.545 Y100.932 E24.15593
G1 X151.101 Y101.267 E24.18616
G1 X151.613 Y101.668 E24.21644
G1 X152.071 Y102.128 E24.24667
G1 X152.469 Y102.642 E24.27694
G1 X152.801 Y103.2 E24.30717
G1 X153.062 Y103.795 E24.33743
G1 X153.248 Y104.417 E24.36766
G1 X153.356 Y105.058 E24.39793
G1 X153.384 Y105.707 E24.42817
G1 X153.333 Y106.354 E24.45839
G1 X153.202 Y106.991 E24.48868
G1 X152.995 Y107.606 E24.51889
G1 X152.713 Y108.192 E24.54917
G1 X152.362 Y108.738 E24.5794
G1 X151.946 Y109.237 E24.60965
G1 X151.296 Y109.82 E24.65031
G1 X150.552 Y110.384 E24.69378
G1 X144.561 Y114.749 E25.03894
G1 X144.083 Y115.087 E25.0662
G1 X143.629 Y115.391 E25.09164
G1 X143.088 Y115.709 E25.12086
G1 X142.579 Y115.958 E25.14724
G1 X141.739 Y116.272 E25.189
G1 X141.116 Y116.447 E25.21913
G1 X140.744 Y116.527 E25.23685
G1 X140.069 Y116.627 E25.26863
G1 X139.33 Y116.677 E25.30312
G1 X138.295 Y116.695 E25.35132
G1 X126.502 Y116.694 E25.90045
G1 X125.885 Y116.685 E25.92918
G1 X125.417 Y116.658 E25.95101
G1 X124.781 Y116.592 E25.98078
G1 X124.169 Y116.499 E26.00961
G1 X123.733 Y116.405 E26.03038
G1 X123.106 Y116.243 E26.06053
G1 X121.744 Y115.871 E26.12627
G1 X119.152 Y115.242 E26.25047
G1 X116.534 Y114.685 E26.37511
G1 X113.901 Y114.201 E26.49976
G1 X111.25 Y113.792 E26.62467
G1 X108.579 Y113.457 E26.75001
G1 X105.95 Y113.202 E26.873
G1 X103.244 Y113.016 E26.9993
G1 X100.581 Y112.909 E27.12341
G1 X97.874 Y112.877 E27.24946
G1 X95.235 Y112.92 E27.37236
G1 X92.535 Y113.041 E27.49821
G1 X89.87 Y113.236 E27.62264
G1 X87.216 Y113.505 E27.74685
G1 X84.553 Y113.853 E27.87191
G1 X81.899 Y114.275 E27.99704
G1 X79.259 Y114.772 E28.12213
G1 X76.674 Y115.335 E28.24532
G1 X74.055 Y115.983 E28.37095
G1 X71.462 Y116.704 E28.49627
G1 X68.902 Y117.493 E28.62101
G1 X67.386 Y117.998 E28.69541
G1 X66.512 Y118.295 E28.73839
G1 X65.885 Y118.467 E28.76867
G1 X65.242 Y118.559 E28.79891
G1 X64.593 Y118.572 E28.82914
G1 X64.039 Y118.52 E28.85505
G1 X62.686 Y118.32 E28.91874
G1 X61.891 Y118.208 E28.95612
G1 X60.988 Y117.999 E28.99928
G1 X60.792 Y117.935 E29.00888
G1 X60.188 Y117.696 E29.03913
G1 X59.726 Y117.45 E29.0635
G1 X59.545 Y117.342 E29.07331
G1 X59.008 Y116.976 E29.10357
G1 X58.59 Y116.614 E29.12932
G1 X58.434 Y116.464 E29.1394
G1 X57.995 Y115.986 E29.16962
G1 X57.666 Y115.535 E29.19561
G1 X57.551 Y115.358 E29.20544
G1 X57.232 Y114.792 E29.2357
G1 X56.963 Y114.144 E29.26837
G1 X56.772 Y113.523 E29.29862
G1 X56.674 Y113.004 E29.32321
G1 X56.645 Y112.794 E29.33309
G1 X56.596 Y112.147 E29.3633
G1 X56.62 Y111.559 E29.3907
G1 X56.641 Y111.344 E29.40076
G1 X56.744 Y110.702 E29.43104
G1 X56.882 Y110.203 E29.45514
G1 X56.947 Y110.006 E29.4648
G1 X57.188 Y109.402 E29.49508
G1 X57.523 Y108.792 E29.52749
G1 X57.887 Y108.254 E29.55774
G1 X58.251 Y107.83 E29.58376
G1 X58.403 Y107.671 E29.594
G1 X58.796 Y107.3 E29.61917
G1 X59.399 Y106.788 E29.656
G1 X75.136 Y93.714 E30.60867
G1 X75.579 Y93.356 E30.63519
M204 S3000
M205 X10 Y10
G1 F2400 E24.63519
G0 F3000 X93.986 Y96.145
G0 X118.203 Y104.507
M204 S1800
M205 X8 Y8
;TYPE:SUPPORT
G1 F2400 E30.63519
G1 F1500 X118.3 Y104.32 E30.645
G1 X118.495 Y104.234 E30.65493
G1 X118.705 Y104.295 E30.66511
G1 X118.822 Y104.472 E30.67499
G1 X118.798 Y104.689 E30.68515
G1 X118.643 Y104.836 E30.6951
G1 X118.421 Y104.849 E30.70546
G1 X118.252 Y104.719 E30.71538
G1 X118.203 Y104.507 E30.72552
M204 S3000
M205 X10 Y10
G0 F3000 X117.723 Y104.452
M204 S1800
M205 X8 Y8
;TYPE:SUPPORT-INTERFACE
G1 F1500 X117.723 Y104.644 E30.73446
G1 X117.765 Y104.819 E30.74284
G1 X117.848 Y104.984 E30.75144
G1 X117.968 Y105.127 E30.76013
G1 X118.121 Y105.243 E30.76907
G1 X118.284 Y105.313 E30.77733
G1 X118.469 Y105.345 E30.78607
G1 X118.654 Y105.334 E30.7947
G1 X118.831 Y105.281 E30.80331
G1 X118.995 Y105.188 E30.81208
G1 X119.127 Y105.062 E30.82058
G1 X119.231 Y104.905 E30.82935
G1 X119.292 Y104.735 E30.83776
G1 X119.314 Y104.548 E30.84653
G1 X119.292 Y104.361 E30.8553
G1 X119.231 Y104.191 E30.86371
G1 X119.127 Y104.034 E30.87247
G1 X118.995 Y103.908 E30.88097
G1 X118.831 Y103.815 E30.88975
G1 X118.654 Y103.762 E30.89835
G1 X118.469 Y103.751 E30.90698
G1 X118.284 Y103.783 E30.91573
G1 X118.121 Y103.853 E30.92399
G1 X117.968 Y103.969 E30.93293
G1 X117.848 Y104.112 E30.94162
G1 X117.765 Y104.277 E30.95022
G1 X117.723 Y104.452 E30.9586
M204 S3000
M205 X10 Y10
G0 F3000 X124.197 Y110.662
M204 S1800
M205 X8 Y8
G1 F1500 X106.984 Y98.182 E31.94861
G1 X106.983 Y98.181 E31.94868
G1 X106.974 Y97.896 E31.96195
G1 X106.976 Y97.883 E31.96257
G1 X107.107 Y97.576 E31.97811
G1 X107.115 Y97.564 E31.97878
G1 X107.365 Y97.342 E31.99435
G1 X107.37 Y97.34 E31.9946
G1 X107.701 Y97.249 E32.01058
G1 X107.893 Y97.265 E32.01955
G1 X107.927 Y97.268 E32.02114
G1 X111.727 Y97.995 E32.2013
G1 X111.735 Y97.998 E32.20169
G1 X127.282 Y109.032 E33.08942
G1 X132.483 Y109.38 E33.33214
G1 X132.379 Y111.215 E33.41773
G1 X125.888 Y111.215 E33.71997
G1 X125.175 Y111.128 E33.75342
G1 X124.522 Y110.87 E33.78611
G1 X124.197 Y110.662 E33.80408
M204 S3000
M205 X10 Y10
